public/discord.svg

<svg width="32" height="32" viewBox="0 0 32 32" fill="none" xmlns="http://www.w3.org/2000/svg">
<g clip-path="url(#clip0_6_280)">
<path d="M27.0933 5.86668C25.0667 4.90668 22.8267 4.26668 20.5867 3.84001H20.48C20.16 4.37334 19.84 5.01334 19.6267 5.54668C17.1733 5.22668 14.72 5.22668 12.2667 5.54668C12.0533 5.01334 11.7333 4.37334 11.4133 3.84001C11.4133 3.84001 11.3067 3.73334 11.3067 3.84001C9.06667 4.26668 6.82667 4.90668 4.8 5.86668C0.64 12.0533 -0.533333 18.1333 0.106667 24.1067V24.2133C2.88 26.24 5.54667 27.4133 8.10667 28.2667H8.21333C8.85333 27.4133 9.38667 26.56 9.81333 25.6C9.81333 25.4933 9.81333 25.4933 9.70667 25.4933C8.85333 25.1733 8 24.7467 7.25333 24.32C7.14667 24.32 7.14667 24.2133 7.25333 24.1067C7.46667 24 7.57333 23.8933 7.78667 23.68H7.89333C13.12 26.0267 18.7733 26.0267 24 23.68H24.1067C24.32 23.7867 24.4267 23.8933 24.64 24.1067C24.7467 24.1067 24.7467 24.2133 24.64 24.32C23.8933 24.7467 23.04 25.1733 22.1867 25.4933C22.08 25.4933 22.08 25.6 22.08 25.6C22.6133 26.56 23.1467 27.4133 23.68 28.2667H23.7867C26.4533 27.4133 29.0133 26.24 31.7867 24.2133C31.7867 24.2133 31.7867 24.2133 31.7867 24.1067C32.5333 17.1733 30.72 11.2 27.0933 5.86668ZM10.6667 20.48C9.06667 20.48 7.78667 18.9867 7.78667 17.28C7.78667 15.4667 9.06667 14.08 10.6667 14.08C12.2667 14.08 13.5467 15.5733 13.5467 17.28C13.5467 18.9867 12.2667 20.48 10.6667 20.48ZM21.3333 20.48C19.7333 20.48 18.4533 18.9867 18.4533 17.28C18.4533 15.4667 19.7333 14.08 21.3333 14.08C22.9333 14.08 24.2133 15.5733 24.2133 17.28C24.2133 18.9867 22.9333 20.48 21.3333 20.48Z" fill="#536471"/>
</g>
<defs>
<clipPath id="clip0_6_280">
<rect width="32" height="32" fill="white"/>
</clipPath>
</defs>
</svg>

<svg width="32" height="32" fill="none" xmlns="http://www.w3.org/2000/svg"><g clip-path="url(#a)"><path d="M27.093 5.867c-2.026-.96-4.266-1.6-6.506-2.027h-.107a12.73 12.73 0 0 0-.853 1.707 28.333 28.333 0 0 0-7.36 0 12.742 12.742 0 0 0-.854-1.707s-.106-.107-.106 0c-2.24.427-4.48 1.067-6.507 2.027C.64 12.053-.533 18.133.107 24.107v.106c2.773 2.027 5.44 3.2 8 4.054h.106c.64-.854 1.174-1.707 1.6-2.667 0-.107 0-.107-.106-.107a17.35 17.35 0 0 1-2.454-1.173c-.106 0-.106-.107 0-.213.214-.107.32-.214.534-.427h.106c5.227 2.347 10.88 2.347 16.107 0h.107c.213.107.32.213.533.427.107 0 .107.106 0 .213-.747.427-1.6.853-2.453 1.173-.107 0-.107.107-.107.107.533.96 1.067 1.813 1.6 2.667h.107c2.666-.854 5.226-2.027 8-4.054v-.106c.746-6.934-1.067-12.907-4.694-18.24zM10.667 20.48c-1.6 0-2.88-1.493-2.88-3.2 0-1.813 1.28-3.2 2.88-3.2 1.6 0 2.88 1.493 2.88 3.2s-1.28 3.2-2.88 3.2zm10.666 0c-1.6 0-2.88-1.493-2.88-3.2 0-1.813 1.28-3.2 2.88-3.2 1.6 0 2.88 1.493 2.88 3.2s-1.28 3.2-2.88 3.2z" fill="#536471"/></g><defs><clipPath id="a"><path fill="#fff" d="M0 0h32v32H0z"/></clipPath></defs></svg>
